build/img/svg/classmates.svg

<svg width="12" height="20" viewBox="0 0 12 20" fill="none" xmlns="http://www.w3.org/2000/svg">
<path d="M5.875 3.02543C7.07072 3.02543 8.04314 3.9842 8.04314 5.16312C8.04314 6.3385 7.07072 7.29726 5.875 7.29726C4.67928 7.29726 3.70687 6.3385 3.70687 5.16312C3.70687 3.9842 4.67928 3.02543 5.875 3.02543ZM5.875 10.3227C8.76345 10.3227 11.1117 8.00746 11.1117 5.16312C11.1117 2.31524 8.76345 0 5.875 0C2.98655 0 0.641942 2.31524 0.641942 5.16312C0.641942 8.00746 2.98655 10.3227 5.875 10.3227ZM7.99271 14.5342C9.05877 14.2927 10.0852 13.8772 11.0324 13.2913C11.7491 12.8474 11.9652 11.9135 11.515 11.2069C11.0612 10.4967 10.1176 10.2836 9.39732 10.7311C7.2544 12.0591 4.4956 12.0591 2.34908 10.7311C1.63237 10.2836 0.685162 10.4967 0.234968 11.2069C-0.215227 11.9135 0.000865602 12.8474 0.717575 13.2913C1.66478 13.8772 2.69123 14.2927 3.75729 14.5342L0.829223 17.4176C0.231365 18.007 0.231365 18.9658 0.829223 19.5552C1.13175 19.85 1.52072 19.9991 1.91329 19.9991C2.30586 19.9991 2.69843 19.85 3.00096 19.5552L5.875 16.7216L8.75264 19.5552C9.3505 20.1483 10.3193 20.1483 10.9208 19.5552C11.5186 18.9658 11.5186 18.007 10.9208 17.4176L7.99271 14.5342Z" fill="#F9FBFD"/>
</svg>

<svg width="12" height="20" viewBox="0 0 12 20" fill="none" xmlns="http://www.w3.org/2000/svg"><path d="M5.875 3.025c1.196 0 2.168.96 2.168 2.138 0 1.175-.972 2.134-2.168 2.134-1.196 0-2.168-.958-2.168-2.134 0-1.179.972-2.138 2.168-2.138Zm0 7.298c2.888 0 5.237-2.316 5.237-5.16C11.112 2.315 8.763 0 5.875 0S.642 2.315.642 5.163c0 2.844 2.345 5.16 5.233 5.16Zm2.118 4.211a9.95 9.95 0 0 0 3.04-1.243 1.5 1.5 0 0 0 .482-2.084 1.545 1.545 0 0 0-2.118-.476 6.733 6.733 0 0 1-7.048 0 1.54 1.54 0 0 0-2.114.476 1.5 1.5 0 0 0 .483 2.084 9.95 9.95 0 0 0 3.04 1.243L.828 17.418a1.498 1.498 0 0 0 0 2.137 1.547 1.547 0 0 0 2.172 0l2.874-2.833 2.878 2.833a1.543 1.543 0 0 0 2.168 0 1.498 1.498 0 0 0 0-2.137l-2.928-2.884Z" fill="#F9FBFD"/></svg>
